svg/FoundationIcons/fi-laptop.svg

<svg xmlns="http://www.w3.org/2000/svg" viewBox="0 0 100 100" enable-background="new 0 0 100 100"><g fill="#231f20"><path d="m14.02 67.7h71.957c2.747 0 4.976-2.229 4.976-4.977v-44.09c0-2.75-2.229-4.976-4.976-4.976h-71.957c-2.747 0-4.976 2.226-4.976 4.976v44.09c-.0001 2.748 2.228 4.977 4.976 4.977m4.976-44.09h62v34.14h-62v-34.14"/><path d="m95.33 72.69h-90.65c-1.267 0-2.294 1.027-2.294 2.294v5.555c0 .58.218 1.135.609 1.559l3.25 3.518c.433.466 1.045.735 1.684.735h83.915c.612 0 1.198-.245 1.631-.681l3.485-3.519c.424-.43.664-1.01.664-1.613v-5.554c0-1.266-1.028-2.294-2.294-2.294m-36.656 7.969c0 .28-.185.507-.415.507h-16.508c-.23 0-.415-.227-.415-.507v-2.264c0-.28.185-.504.415-.504h16.508c.23 0 .415.224.415.504v2.264"/></g></svg>

<?xml version="1.0" encoding="utf-8"?>
<!-- Generator: Adobe Illustrator 17.0.0, SVG Export Plug-In . SVG Version: 6.00 Build 0)  -->
<!DOCTYPE svg PUBLIC "-//W3C//DTD SVG 1.1//EN" "http://www.w3.org/Graphics/SVG/1.1/DTD/svg11.dtd">
<svg version="1.1" id="Layer_1" xmlns="http://www.w3.org/2000/svg" xmlns:xlink="http://www.w3.org/1999/xlink" x="0px" y="0px"
	 width="100px" height="100px" viewBox="0 0 100 100" enable-background="new 0 0 100 100" xml:space="preserve">
<g>
	<path fill="#231F20" d="M14.022,67.699h71.957c2.747,0,4.976-2.229,4.976-4.977V18.628c0-2.75-2.229-4.976-4.976-4.976H14.022
		c-2.747,0-4.976,2.226-4.976,4.976v44.094C9.045,65.47,11.274,67.699,14.022,67.699z M18.998,23.604h62.005v34.142H18.998V23.604z"
		/>
	<path fill="#231F20" d="M95.325,72.686H4.675c-1.267,0-2.294,1.027-2.294,2.294v5.555c0,0.58,0.218,1.135,0.609,1.559l3.25,3.518
		c0.433,0.466,1.045,0.735,1.684,0.735h83.915c0.612,0,1.198-0.245,1.631-0.681l3.485-3.519c0.424-0.43,0.664-1.01,0.664-1.613
		V74.98C97.619,73.714,96.591,72.686,95.325,72.686z M58.669,80.655c0,0.28-0.185,0.507-0.415,0.507H41.746
		c-0.23,0-0.415-0.227-0.415-0.507v-2.264c0-0.28,0.185-0.504,0.415-0.504h16.508c0.23,0,0.415,0.224,0.415,0.504V80.655z"/>
</g>
</svg>
